X: 1801
T: Brian Boru's March
R: march, jig
%S: s:4 b:32(4+4+4+4+4+4+4+4)
B: O'Neill's 1850 #1801
Z: "Transcribed by Bob Safranek, rjs@gsp.org"
Z: Compacted via repeats and multiple endings [JC]
M: 6/8
L: 1/8
K: Am
(e/d/) \
|cc>BAA2 (e/d/) | c>BA \
[1,3 A2(d/c/) | B>AG G2(d/c/) | B>AG G2 :|\
[2,4 A2a | e>fe e2d | (c<A)A A2 |]
|:G \
|  Acd(e2 {fe}d) | (e2{fe}d) \
[1,3 edB | GBc (d2{ed}B) | d2{ed}B dB :|\
[2,4 ecA | cBA (e2{fe}d) | (c<A)A A2 |]
B \
|: cBA {b}a^ga | cBA \
[1,3 {b}a^ga | BAG {a}=g^fg | BAG {a}g^fg :|\
[1,4 a2b | c'ba gfe | dcB A2 |]
B \
|: (cd/e/^f) g2a | g2a ge \
[1,3 c | (GA/B/c) d2e | dge dBG :|\
[2,4 B | {d}cBA (e2{fe}d) | (c<A)A A2 |]
